src/images/svg/symbols/bnb-usd.svg

<svg width="33" height="32" viewBox="0 0 33 32" fill="none" xmlns="http://www.w3.org/2000/svg">
<path d="M2.61328 11C2.61328 6.02944 6.64272 2 11.6133 2C16.5838 2 20.6133 6.02944 20.6133 11C20.6133 15.9706 16.5838 20 11.6133 20C6.64272 20 2.61328 15.9706 2.61328 11Z" fill="#F3BA2F"/>
<path d="M13.3746 10.2665C13.331 10.2597 13.3071 10.2327 13.2842 10.2069C13.278 10.1999 13.272 10.1931 13.2656 10.1868L13.0465 9.96808C12.6032 9.52578 12.1599 9.0834 11.721 8.63678C11.6359 8.55013 11.5907 8.55024 11.5056 8.63686C11.2204 8.92718 10.9328 9.2152 10.6452 9.50323C10.4175 9.73137 10.1896 9.95959 9.96301 10.1889C9.8893 10.2634 9.84735 10.2727 9.76775 10.1899C9.49395 9.90518 9.21212 9.628 8.92842 9.35301C8.85648 9.28328 8.86046 9.24027 8.92889 9.17208C9.80336 8.30083 10.676 7.42774 11.5469 6.55292C11.6023 6.4973 11.6322 6.50305 11.6838 6.55485C12.5523 7.42631 13.4218 8.29663 14.2933 9.16498C14.3634 9.23476 14.3769 9.2794 14.2979 9.35588C14.1008 9.54687 13.9072 9.7415 13.7136 9.93613C13.6287 10.0216 13.5437 10.107 13.4585 10.1921C13.4396 10.2109 13.4192 10.2283 13.3999 10.2448C13.3912 10.2522 13.3827 10.2594 13.3746 10.2665Z" fill="white"/>
<path d="M14.3544 12.7599C14.3414 12.7746 14.3274 12.7905 14.3126 12.8054L13.7097 13.41C13.033 14.0886 12.356 14.7676 11.6808 15.4478C11.624 15.505 11.596 15.4946 11.5456 15.4439C10.671 14.564 9.79522 13.6852 8.91731 12.8085C8.85456 12.7458 8.85775 12.7089 8.91874 12.6494C9.21469 12.3608 9.50969 12.0711 9.79838 11.7752C9.86719 11.7046 9.90231 11.7413 9.94187 11.7826C9.94623 11.7872 9.95064 11.7918 9.95515 11.7963C10.0729 11.9142 10.1907 12.032 10.3086 12.1497L10.3094 12.1505C10.7109 12.5518 11.1126 12.9532 11.5093 13.3593C11.6003 13.4525 11.6405 13.4367 11.7222 13.3535C11.9828 13.0881 12.2455 12.8247 12.5082 12.5614C12.7581 12.3108 13.0082 12.0601 13.2563 11.8078C13.3412 11.7215 13.3895 11.7226 13.4731 11.8095C13.6649 12.009 13.8613 12.2042 14.0576 12.3993C14.1422 12.4834 14.2269 12.5676 14.3111 12.652C14.3162 12.657 14.3217 12.6618 14.3272 12.6666C14.3482 12.6848 14.3699 12.7037 14.3711 12.7411C14.3682 12.7443 14.3652 12.7477 14.3622 12.7511C14.3596 12.754 14.3571 12.7569 14.3544 12.7599Z" fill="white"/>
<path d="M11.5844 11.9997C11.5895 12.0036 11.5943 12.0073 11.5983 12.0106C11.6375 12.0137 11.6564 11.9938 11.6747 11.9745L11.6801 11.9689L11.6831 11.9658C11.7621 11.8871 11.8409 11.8082 11.9197 11.7293L11.9202 11.7288C12.1387 11.5101 12.3573 11.2913 12.5786 11.0755C12.6406 11.0151 12.6439 10.9815 12.5812 10.9197C12.275 10.6178 11.9729 10.3118 11.6709 10.0056C11.6328 9.96688 11.6078 9.95629 11.5648 10C11.2544 10.3153 10.9432 10.6298 10.6289 10.9413C10.578 10.9917 10.5957 11.013 10.6372 11.0542C10.8467 11.2627 11.0548 11.4725 11.2629 11.6823C11.3569 11.777 11.4508 11.8717 11.5449 11.9663C11.5576 11.9791 11.5721 11.9902 11.5844 11.9997Z" fill="white"/>
<path d="M15.1126 9.9933C15.1185 9.99873 15.1251 10.0045 15.132 10.0106C15.1481 10.0249 15.1662 10.0409 15.1833 10.0579C15.2679 10.1418 15.3523 10.2257 15.4367 10.3097C15.6512 10.5229 15.866 10.7365 16.082 10.9481C16.1192 10.9846 16.1265 10.9987 16.0857 11.0387C15.7761 11.3422 15.4686 11.6481 15.1627 11.9555C15.1164 12.002 15.0891 12.0119 15.0369 11.9586C14.7447 11.6605 14.45 11.3647 14.1517 11.0727C14.089 11.0114 14.0893 10.9779 14.1519 10.9168C14.3651 10.7086 14.5756 10.4978 14.786 10.2869C14.8672 10.2056 14.9484 10.1242 15.0298 10.043C15.0339 10.0389 15.0378 10.0345 15.0417 10.0299C15.0579 10.0113 15.0748 9.99165 15.1126 9.9933Z" fill="white"/>
<path d="M8.10549 11.991C8.10949 11.9945 8.11317 11.9978 8.11635 12.0007C8.14621 12.003 8.15965 11.9887 8.17261 11.975C8.1747 11.9728 8.17677 11.9706 8.17889 11.9685C8.25681 11.8913 8.33473 11.814 8.41266 11.7368C8.64655 11.505 8.88044 11.2731 9.11398 11.041C9.14645 11.0087 9.14975 10.9816 9.10991 10.9427C8.80509 10.6453 8.50183 10.3462 8.20234 10.0434C8.14386 9.98429 8.11281 9.98688 8.05579 10.0445C7.75318 10.3502 7.44678 10.6521 7.13963 10.9533C7.10597 10.9864 7.10346 11.0005 7.13847 11.0349C7.37209 11.2644 7.60442 11.4953 7.83674 11.7262C7.91592 11.8048 7.99509 11.8835 8.07432 11.9622C8.08491 11.9727 8.09609 11.9826 8.10549 11.991Z" fill="white"/>
<path d="M12.6133 21C12.6133 16.0294 16.6427 12 21.6133 12C26.5838 12 30.6133 16.0294 30.6133 21C30.6133 25.9706 26.5838 30 21.6133 30C16.6427 30 12.6133 25.9706 12.6133 21Z" fill="white"/>
<path fill-rule="evenodd" clip-rule="evenodd" d="M21.2326 12C19.4993 12.0999 17.8987 12.6903 16.5656 13.6331H26.9516C25.6184 12.6903 24.0178 12.0999 22.2845 12H22.0076H21.2326ZM14.8057 15.2657C14.393 15.7672 14.0355 16.3149 13.7382 16.8987L24.5605 16.8988H29.779C29.4816 16.3151 29.1244 15.7673 28.7114 15.2658L24.7144 15.2657H14.8057ZM12.6504 20.1809C12.6995 19.6202 12.8008 19.0747 12.9486 18.5483H30.2656C30.4135 19.0746 30.5147 19.6202 30.564 20.1809H12.6504ZM12.6538 21.8143C12.7059 22.3753 12.8109 22.9208 12.9617 23.4469H30.2527C30.4037 22.9208 30.5085 22.3752 30.5606 21.8143H12.6538ZM14.6925 26.7129C14.2747 26.212 13.912 25.6642 13.6102 25.08H24.9614L29.6041 25.08C29.3023 25.6643 28.9396 26.212 28.5218 26.7129H24.1433L14.6925 26.7129ZM21.2266 29.969L21.2539 29.97L21.2811 29.971C21.3894 29.9749 21.4979 29.9775 21.6071 29.9775C23.5138 29.9775 25.2805 29.3734 26.7356 28.3463L23.8454 28.3462H16.4788C17.8363 29.3046 19.4657 29.8945 21.2266 29.969Z" fill="#F44336"/>
<path d="M21.422 12.0046C16.8131 12.0984 13.0566 15.6569 12.6523 20.1834H21.4221V12.0046H21.422Z" fill="#283991"/>
<path d="M14.4129 17.085L14.55 17.506H14.9939L14.6348 17.7663L14.7719 18.1876L14.4129 17.9271L14.0541 18.1876L14.191 17.7663L13.832 17.506H14.2759L14.4129 17.085Z" fill="#EFEFEF"/>
<path d="M14.4129 18.5724L14.55 18.9936H14.9939L14.6348 19.254L14.7719 19.6753L14.4129 19.4148L14.0541 19.6753L14.191 19.254L13.832 18.9936H14.2759L14.4129 18.5724Z" fill="#EFEFEF"/>
<path d="M15.9037 14.8533L16.0408 15.2745H16.4846L16.1255 15.535L16.2626 15.956L15.9037 15.6958L15.5447 15.956L15.6818 15.535L15.3226 15.2745H15.7665L15.9037 14.8533Z" fill="#EFEFEF"/>
<path d="M15.9037 16.341L16.0408 16.7621H16.4846L16.1255 17.0223L16.2626 17.4436L15.9037 17.1835L15.5447 17.4436L15.6818 17.0223L15.3226 16.7621H15.7665L15.9037 16.341Z" fill="#EFEFEF"/>
<path d="M15.9037 17.8287L16.0408 18.25H16.4846L16.1255 18.51L16.2626 18.9313L15.9037 18.6709L15.5447 18.9313L15.6818 18.51L15.3226 18.25H15.7665L15.9037 17.8287Z" fill="#EFEFEF"/>
<path d="M13.2811 18.9313L13.1439 18.51L13.503 18.2498H13.0593L13.0493 18.2191C13.0006 18.3694 12.9566 18.5216 12.916 18.6755L12.9223 18.6709L13.2811 18.9313Z" fill="#EFEFEF"/>
<path d="M14.0541 16.7L14.4129 16.4395L14.7719 16.7L14.6348 16.2786L14.9938 16.0182H14.5499L14.4128 15.5972L14.2758 16.0182H14.1122C14.0818 16.0641 14.0524 16.1103 14.0229 16.1569L14.191 16.2786L14.0541 16.7Z" fill="#EFEFEF"/>
<path d="M15.9037 14.2081L16.2626 14.4683L16.1256 14.0473L16.4844 13.7868H16.2281C16.0104 13.9493 15.8003 14.1211 15.5985 14.3025L15.5444 14.4683L15.9037 14.2081Z" fill="#EFEFEF"/>
<path d="M17.0355 13.7246L17.3946 13.4642L17.7534 13.7246L17.6164 13.3033L17.9752 13.0431H17.5315L17.5128 12.9864C17.3625 13.0631 17.2136 13.1428 17.0682 13.2277L17.1724 13.3033L17.0355 13.7246Z" fill="#EFEFEF"/>
<path d="M17.3945 14.1096L17.5316 14.5305H17.9754L17.6163 14.791L17.7534 15.2123L17.3945 14.9518L17.0355 15.2123L17.1726 14.791L16.8134 14.5305H17.2573L17.3945 14.1096Z" fill="#EFEFEF"/>
<path d="M17.3945 15.5973L17.5316 16.0182H17.9754L17.6163 16.2786L17.7534 16.7L17.3945 16.4395L17.0355 16.7L17.1726 16.2786L16.8134 16.0182H17.2573L17.3945 15.5973Z" fill="#EFEFEF"/>
<path d="M17.3945 17.085L17.5316 17.506H17.9754L17.6163 17.7663L17.7534 18.1876L17.3945 17.9271L17.0355 18.1876L17.1726 17.7663L16.8134 17.506H17.2573L17.3945 17.085Z" fill="#EFEFEF"/>
<path d="M17.3945 18.5724L17.5316 18.9936H17.9754L17.6163 19.254L17.7534 19.6753L17.3945 19.4148L17.0355 19.6753L17.1726 19.254L16.8134 18.9936H17.2573L17.3945 18.5724Z" fill="#EFEFEF"/>
<path d="M18.8853 13.3656L19.0224 13.7868H19.4662L19.1073 14.0473L19.2442 14.4683L18.8853 14.2081L18.5262 14.4683L18.6634 14.0473L18.3043 13.7868H18.7481L18.8853 13.3656Z" fill="#EFEFEF"/>
<path d="M18.8853 14.8533L19.0224 15.2745H19.4662L19.1073 15.535L19.2442 15.956L18.8853 15.6958L18.5262 15.956L18.6634 15.535L18.3043 15.2745H18.7481L18.8853 14.8533Z" fill="#EFEFEF"/>
<path d="M18.8853 16.341L19.0224 16.7621H19.4662L19.1073 17.0223L19.2442 17.4436L18.8853 17.1835L18.5262 17.4436L18.6634 17.0223L18.3043 16.7621H18.7481L18.8853 16.341Z" fill="#EFEFEF"/>
<path d="M18.8853 17.8287L19.0224 18.25H19.4662L19.1073 18.51L19.2442 18.9313L18.8853 18.6709L18.5262 18.9313L18.6634 18.51L18.3043 18.25H18.7481L18.8853 17.8287Z" fill="#EFEFEF"/>
<path d="M20.3762 12.6219L20.5132 13.0431H20.957L20.598 13.3033L20.735 13.7246L20.3762 13.4641L20.017 13.7246L20.1542 13.3033L19.7951 13.0431H20.2388L20.3762 12.6219Z" fill="#EFEFEF"/>
<path d="M20.3762 14.1096L20.5132 14.5305H20.957L20.598 14.791L20.735 15.2123L20.3762 14.9518L20.017 15.2123L20.1542 14.791L19.7951 14.5305H20.2388L20.3762 14.1096Z" fill="#EFEFEF"/>
<path d="M20.3762 15.5973L20.5132 16.0182H20.957L20.598 16.2786L20.735 16.7L20.3762 16.4395L20.017 16.7L20.1542 16.2786L19.7951 16.0182H20.2388L20.3762 15.5973Z" fill="#EFEFEF"/>
<path d="M20.3762 17.085L20.5132 17.506H20.957L20.598 17.7663L20.735 18.1876L20.3762 17.9271L20.017 18.1876L20.1542 17.7663L19.7951 17.506H20.2388L20.3762 17.085Z" fill="#EFEFEF"/>
<path d="M20.3762 18.5724L20.5132 18.9936H20.957L20.598 19.254L20.735 19.6753L20.3762 19.4148L20.017 19.6753L20.1542 19.254L19.7951 18.9936H20.2388L20.3762 18.5724Z" fill="#EFEFEF"/>
</svg>

<svg width="33" height="32" fill="none" xmlns="http://www.w3.org/2000/svg"><path d="M2.613 11a9 9 0 1 1 18 0 9 9 0 0 1-18 0Z" fill="#F3BA2F"/><path d="M13.375 10.267c-.044-.007-.068-.034-.09-.06l-.02-.02-.219-.219c-.443-.442-.886-.885-1.325-1.331-.085-.087-.13-.087-.215 0-.286.29-.573.578-.86.866-.229.228-.456.457-.683.686-.074.074-.116.084-.195 0a33.74 33.74 0 0 0-.84-.836c-.072-.07-.068-.113 0-.18a905.44 905.44 0 0 0 2.619-2.62c.055-.056.085-.05.137.002.868.871 1.738 1.742 2.61 2.61.07.07.083.114.004.19-.197.192-.39.386-.584.581l-.255.256-.06.053-.024.022ZM14.354 12.76l-.041.045-.603.605-2.03 2.038c-.056.057-.084.047-.134-.004-.875-.88-1.75-1.759-2.629-2.636-.062-.062-.06-.1.002-.159.296-.288.59-.578.88-.874.068-.07.103-.034.143.008l.013.013.354.354c.402.402.804.803 1.2 1.21.091.093.131.077.213-.006.26-.266.524-.53.786-.793.25-.25.5-.5.748-.753.085-.086.133-.085.217.002.192.199.388.394.585.59l.253.252.016.015c.021.018.043.037.044.074l-.009.01-.008.009Z" fill="#fff"/><path d="m11.584 12 .014.01c.04.004.058-.016.077-.035l.005-.006.003-.003.237-.237c.219-.219.437-.438.659-.653.062-.06.065-.095.002-.156a92.3 92.3 0 0 1-.91-.914c-.038-.04-.063-.05-.106-.006-.31.315-.622.63-.936.941-.051.05-.033.072.008.113.21.209.418.418.626.628l.282.284c.013.013.027.024.04.034ZM15.113 9.993l.019.018.051.047.254.252c.214.213.429.426.645.638.037.037.044.05.004.09-.31.304-.617.61-.923.918-.047.046-.074.056-.126.003a60.604 60.604 0 0 0-.885-.886c-.063-.062-.063-.095 0-.156.213-.208.424-.42.634-.63l.244-.244a.216.216 0 0 0 .012-.013c.016-.019.033-.038.07-.037ZM8.105 11.991a.714.714 0 0 1 .011.01c.03.002.044-.012.057-.026l.006-.006.234-.232.701-.696c.032-.032.036-.06-.004-.098a71.718 71.718 0 0 1-.908-.9c-.058-.059-.09-.056-.146.002-.303.305-.61.607-.916.908-.034.033-.037.048-.002.082l.699.691.237.236.031.029ZM12.613 21a9 9 0 1 1 18 0 9 9 0 0 1-18 0Z" fill="#fff"/><path fill-rule="evenodd" clip-rule="evenodd" d="M21.233 12c-1.734.1-3.334.69-4.667 1.633h10.386A8.956 8.956 0 0 0 22.284 12H21.233Zm-6.427 3.266a8.985 8.985 0 0 0-1.068 1.633H29.78a8.978 8.978 0 0 0-1.068-1.633H14.806ZM12.65 20.18c.05-.56.15-1.106.299-1.633h17.317c.148.527.249 1.072.298 1.633H12.65Zm.004 1.633c.052.561.157 1.107.308 1.633h17.29a8.897 8.897 0 0 0 .309-1.633H12.654Zm2.039 4.899a8.99 8.99 0 0 1-1.083-1.633h15.994a8.987 8.987 0 0 1-1.082 1.633H14.693Zm6.534 3.256.027.001.027.001a8.86 8.86 0 0 0 5.455-1.625H16.479a8.859 8.859 0 0 0 4.748 1.623Z" fill="#F44336"/><path d="M21.422 12.005a8.991 8.991 0 0 0-8.77 8.178h8.77v-8.178Z" fill="#283991"/><path d="m14.413 17.085.137.421h.444l-.36.26.138.422-.36-.26-.358.26.137-.422-.359-.26h.444l.137-.421ZM14.413 18.572l.137.422h.444l-.36.26.138.421-.36-.26-.358.26.137-.421-.359-.26h.444l.137-.422ZM15.904 14.853l.137.421h.444l-.36.261.138.421-.36-.26-.358.26.137-.421-.36-.26h.445l.137-.422ZM15.904 16.341l.137.421h.444l-.36.26.138.422-.36-.26-.358.26.137-.422-.36-.26h.445l.137-.421ZM15.904 17.829l.137.421h.444l-.36.26.138.421-.36-.26-.358.26.137-.421-.36-.26h.445l.137-.421ZM13.281 18.931l-.137-.421.359-.26h-.444l-.01-.03a8.58 8.58 0 0 0-.133.456l.006-.005.36.26ZM14.054 16.7l.359-.26.359.26-.137-.421.359-.26h-.444l-.137-.422-.137.421h-.164l-.09.139.169.122-.137.421ZM15.904 14.208l.359.26-.137-.42.358-.261h-.256a8.944 8.944 0 0 0-.63.515l-.054.166.36-.26ZM17.035 13.725l.36-.26.358.26-.137-.422.36-.26h-.444l-.02-.057c-.15.077-.298.157-.444.242l.104.075-.137.422ZM17.395 14.11l.137.42h.443l-.359.261.137.421-.358-.26-.36.26.138-.421-.36-.26h.444l.137-.421ZM17.395 15.597l.137.421h.443l-.359.26.137.422-.358-.26-.36.26.138-.421-.36-.26h.444l.137-.422ZM17.395 17.085l.137.421h.443l-.359.26.137.422-.358-.26-.36.26.138-.422-.36-.26h.444l.137-.421ZM17.395 18.572l.137.422h.443l-.359.26.137.421-.358-.26-.36.26.138-.421-.36-.26h.444l.137-.422ZM18.885 13.366l.137.42h.444l-.359.261.137.421-.359-.26-.359.26.137-.42-.359-.261h.444l.137-.421ZM18.885 14.853l.137.421h.444l-.359.261.137.421-.359-.26-.359.26.137-.421-.359-.26h.444l.137-.422ZM18.885 16.341l.137.421h.444l-.359.26.137.422-.359-.26-.359.26.137-.422-.359-.26h.444l.137-.421ZM18.885 17.829l.137.421h.444l-.359.26.137.421-.359-.26-.359.26.137-.421-.359-.26h.444l.137-.421ZM20.376 12.622l.137.421h.444l-.359.26.137.422-.359-.26-.359.26.137-.422-.359-.26h.444l.137-.421ZM20.376 14.11l.137.42h.444l-.359.261.137.421-.359-.26-.359.26.137-.421-.359-.26h.444l.137-.421ZM20.376 15.597l.137.421h.444l-.359.26.137.422-.359-.26-.359.26.137-.421-.359-.26h.444l.137-.422ZM20.376 17.085l.137.421h.444l-.359.26.137.422-.359-.26-.359.26.137-.422-.359-.26h.444l.137-.421ZM20.376 18.572l.137.422h.444l-.359.26.137.421-.359-.26-.359.26.137-.421-.359-.26h.444l.137-.422Z" fill="#EFEFEF"/></svg>
